X:1
T:Title
%%score { 1 | 2 }
L:1/8
M:3/4
K:Db
V:1 treble nm="Grand Piano"
V:2 bass 
V:1
 z2 z2[Q:1/4=106] [FA]2 | [Fd]4 [Ac][GB] | [FA]2 [DF]2 [FA]2 | [EG]2 [CE]2 [CA]2 | [DF]4 [FA]2 | %5
 [Fd]4 [Ac][GB] | [FA]2 F2 F2 | E2 A2 =G2 |[M:2/4] [CEA]4 |[M:1/4] A2 |[M:3/4] e4 dc | %11
 [Fd]2 .[FA]2 z d | c2 .e2 z e | [Fd]2 [Af]2 [Ad]2 | e4 dc | [Fd]2 [FA]2 [DFA]2 | %16
 [CEA]2 [DFA]2 [EGA]2 |[M:2/4] [DFA]4 |] %18
V:2
 z2 z2 [D,A,]2 | [D,A,]4 [D,B,][D,C] | [D,D]2 [D,A,]2 [D,A,]2 | [A,,A,]2 [A,,A,]2 [A,,A,]2 | %4
 [D,A,]4 [D,A,]2 | [D,A,]4 [D,B,][D,C] | [D,D]2 [D,A,D]2 [D,A,D]2 | [E,A,C]2 [E,CE]2 [E,B,E]2 | %8
[M:2/4] A,,4 |[M:1/4][K:treble] [A,CE]2 |[M:3/4] [A,CG]4 [A,DF][K:bass][A,E] | %11
 [D,D]2 .[D,D]2 z [F,A,F] | [A,E]2[K:treble] .[A,CG]2 z [A,CG] | [D,D]2 [D,D]2 [F,D]2 | %14
 [A,CG]4 [A,DF][K:bass][A,E] | [D,D]2 [D,D]2 F,2 | A,2 A,2 A,,2 |[M:2/4] D,4 |] %18

